X:1
T:My Father Knows My Need
T:My Father Knows My Need
T:Charles Hutchinson Gabriel
T:Mrs. W. Howard Keesler, 1906
T:Public Domain Courtesy of the Cyber Hymnal™
C:Charles Hutchinson Gabriel
Z:Public Domain
Z:Courtesy of the Cyber Hymnal™
%%score ( 1 2 ) ( 3 4 )
L:1/8
Q:1/4=90
M:6/8
K:D
V:1 treble 
V:2 treble 
V:3 bass 
V:4 bass 
V:1
 FDE G2 ^E | F3- F2 F | F2 D C E2 | D2 z DEF | G2 c B2 G | F3 !fermata!F2 D | F2 G E F2 | D4 x || %8
w: 1.~My Fa- ther knows my|need, * And|I can trust His|love; He may not|al- ways deign to|give me The|things which I most|crave.|
w: 2.~My Fa- ther knows my|need, * He|will sup- ply it|all; He hears His|child- ren when they|cry, and He|an- swers when they|call.|
w: 3.~My Fa- ther knows my|need, * His|love no tongue can|tell; And if some-|times He does de-|ny me, I|know for me ’tis|well.|
w: 4.~My Fa- ther knows my|need, * He|knows my strength is|small, So I will|trust His love and|grace, for He|will not let me|fall.|
w: 5.~My Fa- ther knows my|need, * I|fear no dread a-|larms, For round a-|bout and un- der-|neath me Are|ev- er- last- ing|arms.|
[M:4/4]"^Refrain" FAd | (z [Gc])[GB][GA] [GB] x3 | A4- !fermata![FA]DEG | z [A,E]2 x8 | %12
w: ||||
w: ||||
w: My Fa- ther|* knows, Oh yes,|* He knows, And with||
w: ||||
w: ||||
 [A,D]6 z2 |] %13
w: |
w: |
w: my|
w: |
w: |
V:2
 x6 | x6 | x6 | x6 | x6 | x6 | x6 | x5 ||[M:4/4] x3 | c4 G G G x | F2 G2 x4 | (F6 DDB, C2) | x8 |] %13
V:3
 A,F,G, B,2 ^G, | A,3- [D,,A,]2 A, | A,2 F, E, G,2 | [D,F,]2 z F,G,A, | B,2 E D2 B, | %5
w: ~ ~ ~ ~ ~|~ * ~|* ~ ~ ~|~ ~ ~ ~|~ ~ ~ ~|
 [D,-A,]3 !fermata![D,D]2 F, | A,2 B, G, A,2 | F,4 [D,,D,] ||[M:4/4] z3 | %9
w: ~ * ~|~ ~ ~ ~|~ ~||
 z [A,,A,][A,,A,][A,,A,] [A,E][A,D][A,C][A,C] | [D,D]2 [D,B,]2 !fermata![D,D]F,G,B, | %11
w: ~ My Fa- ther knows, ~ ~|~ ~ He knows, ~ ~|
 z [A,,G,]2 x8 | [D,F,]6 z2 |] %13
w: ~|~|
V:4
 D,6- | D,A,,F,, x3 | A,,6 | x6 | G,,6 | x6 | A,,6 | D, A,, F,, x2 ||[M:4/4] x3 | x8 | x8 | %11
 A,6 A,,A,,A,, A,,2 | x8 |] %13

